X:8774
T:L'Ablanera (Arrg.)
C:Tradicional
S:Msica Tradicional Asturiana, (C) Tello & Tito. Asturies, 2001.
S:http://pagina.de/MusTradAst <telloytito@asturies.org>
A:Asturies
G:Arrg.
Z:Nacho Fonseca
M:2/4
L:1/8
Q:1/4=200
K:C
|: "C"G3 F|"C"ED EF|"C"G2 E2|"G"F3 E|"G"DF FE|"C"D2 C2 :|
|: "G"F2 FE|"G"D2 DE|"G"FG AG|"C"F2 E2 :|
